svgs/solid/file-binary.svg

<svg xmlns="http://www.w3.org/2000/svg" viewBox="0 0 384 512"><!-- Font Awesome Pro 6.0.0-alpha2 by @fontawesome - https://fontawesome.com License - https://fontawesome.com/license (Commercial License) --><path d="M256 0V128H384L256 0ZM144 288H112C103.188 288 96 295.172 96 304V368C96 376.828 103.188 384 112 384H144C152.812 384 160 376.828 160 368V304C160 295.172 152.812 288 144 288ZM224 128V0H48C21.492 0 0 21.492 0 48V464C0 490.508 21.492 512 48 512H336C362.508 512 384 490.508 384 464V160H256C238.328 160 224 145.672 224 128ZM192 368C192 394.469 170.469 416 144 416H112C85.531 416 64 394.469 64 368V304C64 277.531 85.531 256 112 256H144C170.469 256 192 277.531 192 304V368ZM288 272V384H304C312.844 384 320 391.156 320 400S312.844 416 304 416H240C231.156 416 224 408.844 224 400S231.156 384 240 384H256V288H240C231.156 288 224 280.844 224 272S231.156 256 240 256H272C280.844 256 288 263.156 288 272Z"/></svg>

<svg xmlns="http://www.w3.org/2000/svg" viewBox="0 0 384 512"><!--! Font Awesome Pro 6.4.0 by @fontawesome - https://fontawesome.com License - https://fontawesome.com/license (Commercial License) Copyright 2023 Fonticons, Inc. --><path d="M64 0C28.7 0 0 28.7 0 64V448c0 35.3 28.7 64 64 64H320c35.3 0 64-28.7 64-64V160H256c-17.7 0-32-14.3-32-32V0H64zM256 0V128H384L256 0zM112 256h32c26.5 0 48 21.5 48 48v64c0 26.5-21.5 48-48 48H112c-26.5 0-48-21.5-48-48V304c0-26.5 21.5-48 48-48zM96 304v64c0 8.8 7.2 16 16 16h32c8.8 0 16-7.2 16-16V304c0-8.8-7.2-16-16-16H112c-8.8 0-16 7.2-16 16zm144-48h32c8.8 0 16 7.2 16 16V384h16c8.8 0 16 7.2 16 16s-7.2 16-16 16H272 240c-8.8 0-16-7.2-16-16s7.2-16 16-16h16V288H240c-8.8 0-16-7.2-16-16s7.2-16 16-16z"/></svg>
